la/sitemap-solid.svg

<svg xmlns="http://www.w3.org/2000/svg" viewBox="0 0 32 32" height="1em" width="1em">
  <path d="M12 5v8h3v2H5v4H2v8h8v-8H7v-2h8v2h-3v8h8v-8h-3v-2h8v2h-3v8h8v-8h-3v-4H17v-2h3V5Zm2 2h4v4h-4ZM4 21h4v4H4Zm10 0h4v4h-4Zm10 0h4v4h-4Z"/>
</svg>

<svg xmlns="http://www.w3.org/2000/svg" viewBox="0 0 32 32" height="1em" width="1em">
  <path d="M 12 5 L 12 13 L 15 13 L 15 15 L 5 15 L 5 19 L 2 19 L 2 27 L 10 27 L 10 19 L 7 19 L 7 17 L 15 17 L 15 19 L 12 19 L 12 27 L 20 27 L 20 19 L 17 19 L 17 17 L 25 17 L 25 19 L 22 19 L 22 27 L 30 27 L 30 19 L 27 19 L 27 15 L 17 15 L 17 13 L 20 13 L 20 5 Z M 14 7 L 18 7 L 18 11 L 14 11 Z M 4 21 L 8 21 L 8 25 L 4 25 Z M 14 21 L 18 21 L 18 25 L 14 25 Z M 24 21 L 28 21 L 28 25 L 24 25 Z"/>
</svg>
